libs/ui/packages/crypto-icons/src/svg/XBY.svg

<svg width="24" height="24" viewBox="0 0 24 24" fill="none">
<path d="M4.5 5.637C4.5 5.62575 4.6575 5.625 6.6885 5.6265L8.87775 5.62875L10.1227 7.7235L11.3888 9.85425L11.4097 9.8895L11.6077 9.552C11.7158 9.366 11.8043 9.21075 11.8028 9.20625C11.8013 9.20175 11.325 8.39775 10.7452 7.42125C10.1655 6.44475 9.69075 5.6415 9.69075 5.63625C9.69075 5.6265 10.02 5.625 11.9955 5.625C13.275 5.625 14.2995 5.628 14.2995 5.6325C14.2995 5.6475 9.41325 13.9553 9.402 13.9575C9.39375 13.959 8.679 12.7515 6.945 9.80475C5.60025 7.5195 4.5 5.6445 4.5 5.637ZM15.105 5.63025C15.105 5.62725 16.095 5.625 17.3032 5.625H19.5L19.497 5.6415C19.4948 5.65125 18.3998 7.51725 17.064 9.78825C15.4448 12.5385 14.6295 13.9178 14.619 13.9193C14.6093 13.9207 14.3797 13.539 13.6102 12.2438C13.0612 11.3213 12.6105 10.5638 12.6075 10.5623C12.6015 10.5585 12.2078 11.2268 12.2108 11.2358C12.2115 11.2395 12.6637 12.0007 13.2142 12.9277C13.5526 13.4906 13.8851 14.0568 14.2118 14.6265C14.205 14.6528 12.0097 18.3728 12.0007 18.375C11.9865 18.378 9.804 14.67 9.8085 14.6512C9.81225 14.643 15.024 5.76375 15.1042 5.63025H15.105Z" fill="#56F4F1"/>
</svg>

<svg width="24" height="24" viewBox="0 0 24 24" fill="none"><path fill="#56f4f1" d="M4.5 5.637c0-.011.157-.012 2.189-.01l2.189.002 1.245 2.095 1.266 2.13.02.036.199-.338c.108-.186.196-.341.195-.346l-1.058-1.785a233 233 0 0 1-1.054-1.785c0-.01.329-.011 2.304-.011 1.28 0 2.305.003 2.305.008 0 .014-4.887 8.322-4.898 8.325-.008.001-.723-1.207-2.457-4.153A881 881 0 0 1 4.5 5.637m10.605-.007c0-.003.99-.005 2.198-.005H19.5l-.003.016c-.002.01-1.097 1.876-2.433 4.147-1.62 2.75-2.434 4.13-2.445 4.131s-.24-.38-1.009-1.675l-1.002-1.682c-.007-.003-.4.665-.397.674 0 .003.453.765 1.003 1.692q.508.844.998 1.698c-.007.027-2.202 3.747-2.211 3.749-.014.003-2.197-3.705-2.192-3.724.003-.008 5.215-8.887 5.295-9.02z"/></svg>
